public/primaries/Octothorpe.svg

<svg id="Layer_1" data-name="Layer 1" xmlns="http://www.w3.org/2000/svg" width="64" height="64" viewBox="0 0 64 64">
  <defs>
    <style>
      .cls-1 {
        fill-rule: evenodd;
      }
    </style>
  </defs>
  <title>Icons 100</title>
  <path class="cls-1" d="M50.9978,25.1809A2,2,0,0,1,49.006,27H41.4872L40.579,37h7.3321a2.0433,2.0433,0,0,1,2.0966,2.1809A2.0665,2.0665,0,0,1,47.9111,41H40.2156L39.2,52.181A2,2,0,0,1,37.2082,54h0a2,2,0,0,1-1.9917-2.1809L36.1991,41H26.1662L25.15,52.181a2,2,0,0,1-3.9835-.3619L22.15,41H14.9941a2,2,0,0,1,0-4h7.5188l0.9084-10H16.0888a2.0432,2.0432,0,0,1-2.0964-2.181A2.0663,2.0663,0,0,1,16.0888,23h7.6958L24.8,11.8192a2,2,0,0,1,3.9836.3617L27.801,23H37.834L38.85,11.8192a2,2,0,0,1,3.9836.3617L41.85,23H49.006A2,2,0,0,1,50.9978,25.1809ZM27.4378,27L26.53,37H36.5623l0.9083-10H27.4378Z"/>
</svg>

<svg id="Layer_1" data-name="Layer 1" xmlns="http://www.w3.org/2000/svg" width="64" height="64" viewBox="0 0 64 64"><defs><style>.cls-1{fill-rule:evenodd}</style></defs><title>Icons 100</title><path class="cls-1" d="M50.998 25.18A2 2 0 0 1 49.006 27h-7.519l-.908 10h7.332a2.043 2.043 0 0 1 2.097 2.18A2.067 2.067 0 0 1 47.91 41h-7.695L39.2 52.181A2 2 0 0 1 37.208 54a2 2 0 0 1-1.992-2.18L36.2 41H26.166L25.15 52.181a2 2 0 0 1-3.983-.362L22.15 41h-7.156a2 2 0 0 1 0-4h7.519l.908-10H16.09a2.043 2.043 0 0 1-2.097-2.181A2.066 2.066 0 0 1 16.09 23h7.696L24.8 11.82a2 2 0 0 1 3.984.36L27.8 23h10.033l1.016-11.18a2 2 0 0 1 3.984.36L41.85 23h7.156a2 2 0 0 1 1.992 2.18zM27.438 27l-.908 10h10.032l.909-10H27.438z"/></svg>
